!!!COM: Josephine Lang
!!!CNT: Deutsch
!!!TXO: Deutsch
!!!OTL: "Traumbild"
!!!LYR: Heine
!!!OPS: Op. 28
!!!ONM: No. 1
!!!ENC: Alyona Dzerbina, phrasing by LVH
!!!YOR: Josephine Lang: Selected Songs
!!!YOR: Da Capo Press, 1982
!!!ODT: 1834/
!!NB: Vocal melody only encoded.
**kern
*staff1
*clefG2
*k[b-]
*M3/4
*MM[Andante]
2.r
=2
2.r
=3
2.r
=4
2.r
=5
2.r
=6
2.r
=7
2.r
=8
{(12f
12g)
12g#
4a
4a
=9
(12a
12b-)
12a
[4cc
12cc]
12b-
12a
=10
6g
12f#
[4g
12g]
12a
12fn
=11
2cc}
4r
=12
8r
{8f
8f
8f
(12a
12g)
12f
=13
(2ff
8f)
8g
=14
[4a
b-q_
12a]
12g
12a
8.dd
16cc
=15
4f}
4r
4r
=16
2.r
=17
2.r
=18
2.r
=19
2.r
=20
8r
{8g
[4ff
8ff]
8ee
=21
8ee
8dd
4bn
8g
8g
=22
2g
8a
8a
=23
8a
8f
4d}
4r
=24
8r
{8g
[4ff
8ff]
8ee
=25
8.ee
16dd
(4cc
8bn)
8a
=26
[4g
8g]
8f#
8fn
8d
=27
2c}
4r
=28
8r
{8f#
[4g
8g]
8f#
=29
8g
8g#
(4a
8f)
8gn
=30
[4a
8a]
8a
8.dd
16cc
=31
2.cc}
=32
2.r
=33
8r
{8a
4a
4a
=34
(12a
12b-)
12a
[4cc
12cc]
12b-
12a
=35
8g
8f#
([4g
12g]
12a)
12fn
=36
2cc}
4r
=37
8r
{8f
8f
8f
(12a
12g
12f)
=38
2ff
8.f
16g
=39
([4a
12a]
12g
12a)
8.dd
16cc
=40
2a}
8r
{8a
=41
4a
4b-
8.a
16b-
=42
(2cc
12ee)
12dd
12cc
=43
(4ee-
4dd)
4ff
=44
(2ff
8a)}
16r
{16a
=45
2g
8.f#
16g
=46
([4ee
6ee]
12cc
12b-)
12d
(12e
=47
2f)}
4r
=48
2.r
=49
2.r
=50
2.r
=51
2.r
=52
2.r
=53
2.r
==
*-
